X:1
Q:1/4=180
L:1/8
M:1/4
K:C clef=G2
V:1
%%MIDI program 0
[df]15/8|[d-f-]2|[df]7/4z7/32|[eg]15/8|
[d-f-]2|[df]7/4z7/32|[^Ad]15/8|[Ac]15/8|
[F-A-]2|[F-A-]2|[F-A-]2|[FA]3/2z7/16|
A15/8|[F-A-]2|[FA]7/4z7/32|[D^A]15/8|
[C-A-]2|[CA]7/4z7/32|G15/8|[F-A,]2|
[F-]2|[F-]2|[F]3/2z7/16|z2|
[EG]15/8|[F-A-]2|[FA]7/4z7/32|[EG]15/8|
[F-A-]2|[FA]7/4z7/32|[EG]15/8|[FA]15/8|
[A-c-]2|[A-c-]2|[A-c-]2|[Ac]3/2z7/16|
[Ac]15/8|[^A-d-]2|[^Ad]7/4z7/32|[ce]15/8|
[d-f-]2|[df]7/4z7/32|[^Ad]15/8|[A-c-]2|
[A-c-]2|[A-c-]2|[A-c-]2|[Ac]z|
[df]15/8|[d-f-]2|[df]7/4z7/32|[ce]15/8|
[d-f-]2|[df]7/4z7/32|[ce]15/8|[Ad]15/8|
[A-c-]2|[A-c-]2|[A-c-]2|[Ac]3/2z7/16|
[G^A]31/32[Ac]15/16|[B-d-]2|[Bd]7/4z7/32|[B,G]15/8|
[G-B,]2|[G]7/4z7/32|[FA]15/8|[E-G-]2|
[E-G-]2|[E-G-]2|[EG]3/2z7/16|[Ac]15/8|
[G^A]15/8|[F-A-]2|[FA]7/4z7/32|[EG]15/8|
[F-A-]2|[FA]7/4z7/32|[EG]15/8|[FA]15/8|
[A-c-]2|[A-c-]2|[A-c-]2|[Ac]3/2z7/16|
[Ac]15/8|[^A-d-]2|[^Ad]7/4z7/32|[ce]15/8|
[d-f-]2|[df]7/4z7/32|[^Ad]15/8|[A-c-]2|
[A-c-]2|[A-c-]2|[A-c-]2|[Ac]z|
[df]15/8|[d-f-]2|[df]7/4z7/32|[ce]15/8|
[d-f-]2|[df]7/4z7/32|[ce]15/8|[^Ad]15/8|
[A-c-]2|[A-c-]2|[A-c-]3/2[Ac]3/16z3/8|[FA]15/8|
[G^A]15/8|[E-A-]2|[EA]7/4z7/32|[D^A]15/8|
[E-A-]2|[EA]7/4z7/32|G15/8|[F-A,]2|
[F-]2|[F-]2|[F]3/2z7/16|z2|
c15/8|d2-|d7/4z7/32|c15/8|
d2-|d7/4z7/32|c15/8|d15/8|
f2-|f2-|f2-|f3/2z7/16|
d15/8|c2-|c7/4z7/32|d15/8|
c2-|c7/4z7/32|F15/8|A2-|
A2-|A2-|A2-|Az|
c15/8|d2-|d7/4z7/32|c15/8|
d2-|d7/4z7/32|c15/8|d15/8|
f2-|f2-|f3/2-f3/16z3/8|e15/8|
f15/8|[e-g-]2|[eg]7/4z7/32|[df]15/8|
[c-e-]2|[ce]7/4z7/32|[Bd]15/8|[^A-c-]2|
[^A-c-]2|[^A-c-]2|[^Ac]3/2z7/16|z2|
[EG]15/8|[F-A-]2|[FA]7/4z7/32|[EG]15/8|
[F-A-]2|[FA]7/4z7/32|[EG]15/8|[F-A-]2|
[FA]7/4z7/32|[Ac]15/8|[A-c-]2|[Ac]7/4z7/32|
[Ac]15/8|[^A-d-]2|[^Ad]7/4z7/32|[ce]15/8|
[d-f-]2|[df]7/4z7/32|[^Ad]15/8|[A-c-]2|
[A-c-]2|[A-c-]2|[A-c-]2|[Ac]z|
[df]15/8|[d-f-]2|[df]7/4z7/32|[eg]15/8|
[d-f-]2|[df]7/4z7/32|[^Ad]15/8|[Ac]15/8|
[F-A-]2|[F-A-]2|[F-A-]2|[FA]3/2z7/16|
A15/8|[F-A-]2|[FA]7/4z7/32|[D^A]15/8|
[C-A-]2|[CA]7/4z7/32|G15/8|[^A,G]15/8|
F2-|F2-|F3/2-F3/16z3/8|z2|
c15/8
L:1/8
M:1/4
K:C clef=F4
V:2
%%MIDI program 0
z2|D,,15/8|[F,^A,D]15/8|[F,^A,D]15/8|
D,,15/8|[F,^A,D]15/8|[F,^A,D]15/8|F,,15/8|
[F,A,C]15/8|[F,A,C]15/8|F,,15/8|[F,A,C]15/8|
[F,A,C]15/8|D,,15/8|[C,F,A,]15/8|[C,F,A,]15/8|
C,,15/8|[D,G,^A,]15/8|[D,G,^A,]15/8|F,,15/8|
[A,F,CC,,]15/8|[A,F,CA,,]15/8|[F,A,CF,,]15/8|z2|
z2|F,,15/8|[F,A,C]15/8|[F,A,C]15/8|
C,,15/8|[F,A,C]15/8|[F,A,C]15/8|F,,15/8|
[F,A,C]15/8|[F,A,C]15/8|F,,15/8|[F,A,C]15/8|
[F,A,C]15/8|^A,,15/8|[F,^A,D]15/8|[F,^A,D]15/8|
^A,,15/8|[F,^A,D]15/8|[F,^A,D]15/8|F,,15/8|
[F,A,C]15/8|[F,A,C]15/8|F,,15/8|[F,A,C]15/8|
z2|D,,15/8|[F,^A,D]15/8|[F,^A,D]15/8|
D,,15/8|[F,^A,D]15/8|[F,^A,D]15/8|F,,15/8|
[F,A,C]15/8|[F,A,CE,,]15/8|D,,15/8|[F,A,D]15/8|
[F,A,D]15/8|G,,15/8|[D,F,B,]15/8|[D,F,G,]15/8|
G,,15/8|[D,F,B,A,,]15/8|[D,F,B,B,,]15/8|C,15/8|
[E,G,C]15/8|[E,G,B,]15/8|[E,G,^A,C,]15/8|z2|
z2|F,,15/8|[F,A,C]15/8|[F,A,C]15/8|
C,,15/8|[F,A,C]15/8|[F,A,C]15/8|F,,15/8|
[F,A,C]15/8|[F,A,C]15/8|F,,15/8|[F,A,CG,,]15/8|
[F,A,CA,,]15/8|^A,,15/8|[F,^A,D]15/8|[F,^A,D]15/8|
^A,,15/8|[F,^A,D]15/8|[F,^A,D]15/8|F,,15/8|
[F,A,C]15/8|[F,A,C]15/8|E,,15/8|[F,A,C]15/8|
[F,A,C]15/8|D,,15/8|[F,^A,D]15/8|[F,^A,D]15/8|
D,,15/8|[F,^A,D]15/8|[F,^A,D]15/8|F,,15/8|
[F,A,C]15/8|[F,A,CE,,]15/8|D,,15/8|[F,A,D]15/8|
[F,A,D]15/8|C,,15/8|[D,G,^A,]15/8|[D,G,^A,]15/8|
C,,15/8|[G,^A,C]15/8|[G,^A,C]15/8|F,,15/8|
[A,F,CC,,]15/8|[A,F,CA,,]15/8|[F,A,CF,,]15/8|z2|
z2|^A,,15/8|[F,^A,D]15/8|[F,^A,D]15/8|
^A,,15/8|[F,^A,D]15/8|[F,^A,D]15/8|D,,15/8|
[F,^A,D]15/8|[F,^A,D]15/8|D,,15/8|[F,^A,D]15/8|
[F,^A,D]15/8|F,,15/8|[F,A,C]15/8|[F,A,C]15/8|
C,,15/8|[F,A,C]15/8|[F,A,C]15/8|F,,15/8|
[F,A,C]15/8|[F,A,C]15/8|F,,15/8|[F,A,CG,,]15/8|
[F,A,CA,,]15/8|^A,,15/8|[F,^A,D]15/8|[F,^A,D]15/8|
^A,,15/8|[F,^A,D]15/8|[F,^A,D]15/8|D,,15/8|
[F,^A,D]15/8|[F,^A,D]15/8|D,,15/8|[F,^A,D]15/8|
[F,^A,D]15/8|G,,15/8|[D,F,B,]15/8|[D,F,B,]15/8|
G,,15/8|[D,F,B,]15/8|[D,F,B,]15/8|C,,15/8|
[F,G,C]15/8|[F,G,C]15/8|[E,G,CC,,]15/8|z2|
z2|F,,15/8|[F,A,C]15/8|[F,A,C]15/8|
C,,15/8|[F,A,C]15/8|[F,A,C]15/8|F,,15/8|
[F,A,C]15/8|[F,A,C]15/8|F,,15/8|[F,A,C]15/8|
[F,A,C]15/8|^A,,15/8|[F,^A,D]15/8|[F,^A,D]15/8|
^A,,15/8|[F,^A,D]15/8|[F,^A,D]15/8|F,,15/8|
[F,A,C]15/8|[F,A,C]15/8|[F,A,CE,,]15/8|z2|
z2|D,,15/8|[F,^A,D]15/8|[F,^A,D]15/8|
D,,15/8|[F,^A,D]15/8|[F,^A,D]15/8|F,,15/8|
[F,A,C]15/8|[F,A,C]15/8|F,,15/8|[F,A,C]15/8|
[F,A,C]15/8|D,,15/8|[C,F,A,]15/8|[C,F,A,]15/8|
C,,15/8|[D,G,^A,]15/8|[D,G,^A,]15/8|F,,15/8|
[A,F,CC,,]15/8|[A,F,CA,,]15/8|[F,A,CF,,]15/8|z2|
zz31/32
Q:1/4=180
L:1/8
M:1/4
K:C clef=G2
V:1
%%MIDI program 0
d31/16|d7/4(5:4z/4|c15/8|d31/16|
d7/4z/4|c15/8|d15/8|f31/16|
f2-|f2-|(5:4f2z/2|d15/8|
c31/16|c7/4(5:4z/4|d15/8|c31/16|
c7/4z/4|F15/8|A31/16|A2-|
A2-|A2-|A3/2z/2|c15/8|
d31/16|d7/4(5:4z/4|c15/8|d31/16|
d7/4z/4|c15/8|d15/8|f31/16|
f2-|f3/2-(5:4f/4z/2|e15/8|f15/8|
[eg]31/16|[eg]7/4(5:4z/4|[df]15/8|[ce]31/16|
[ce]7/4z/4|[Bd]15/8|[^Ac]31/16|[^A-c-]2|
[^A-c-]2|(5:4[^Ac]2z/2|z2|[EG]15/8|
[FA]31/16|[FA]7/4(5:4z/4|[EG]15/8|[FA]31/16|
[FA]7/4z/4|[EG]15/8|[FA]31/16|[FA]7/4(5:4z/4|
[Ac]15/8|[Ac]31/16|[Ac]7/4z/4|[Ac]15/8|
[^Ad]31/16|[^Ad]7/4(5:4z/4|[ce]15/8|[df]31/16|
[df]7/4z/4|[^Ad]15/8|[Ac]31/16|[A-c-]2|
[A-c-]2|[A-c-]2|[Ac]3/2z/2|[df]15/8|
[df]31/16|[df]7/4(5:4z/4|[eg]15/8|[df]31/16|
[df]7/4z/4|[^Ad]15/8|[Ac]15/8|[FA]31/16|
[F-A-]2|[F-A-]2|(5:4[FA]2z/2|A15/8|
[FA]31/16|[FA]7/4(5:4z/4|[D^A]15/8|[CA]31/16|
[CA]7/4z/4|G15/8|[FA,]31/16|[F]31/16|
[F-]2|(5:4[F]2z/2
L:1/8
M:1/4
K:C clef=F4
V:2
%%MIDI program 0
^A,,15/8|[F,^A,D]15/8|[F,^A,D]15/8|^A,,15/8|
[F,^A,D]15/8|[F,^A,D]15/8|D,,15/8|[F,^A,D]15/8|
[F,^A,D]15/8|D,,15/8|[F,^A,D]15/8|[F,^A,D]15/8|
F,,15/8|[F,A,C]15/8|[F,A,C]15/8|C,,15/8|
[F,A,C]15/8|[F,A,C]15/8|F,,15/8|[F,A,C]15/8|
[F,A,C]15/8|F,,15/8|[F,A,CG,,]15/8|[F,A,CA,,]15/8|
^A,,15/8|[F,^A,D]15/8|[F,^A,D]15/8|^A,,15/8|
[F,^A,D]15/8|[F,^A,D]15/8|D,,15/8|[F,^A,D]15/8|
[F,^A,D]15/8|D,,15/8|[F,^A,D]15/8|[F,^A,D]15/8|
G,,15/8|[D,F,B,]15/8|[D,F,B,]15/8|G,,15/8|
[D,F,B,]15/8|[D,F,B,]15/8|C,,15/8|[F,G,C]15/8|
[F,G,C]15/8|[E,G,CC,,]15/8|z2|z2|
F,,15/8|[F,A,C]15/8|[F,A,C]15/8|C,,15/8|
[F,A,C]15/8|[F,A,C]15/8|F,,15/8|[F,A,C]15/8|
[F,A,C]15/8|F,,15/8|[F,A,C]15/8|[F,A,C]15/8|
^A,,15/8|[F,^A,D]15/8|[F,^A,D]15/8|^A,,15/8|
[F,^A,D]15/8|[F,^A,D]15/8|F,,15/8|[F,A,C]15/8|
[F,A,C]15/8|[F,A,CE,,]15/8|z2|z2|
D,,15/8|[F,^A,D]15/8|[F,^A,D]15/8|D,,15/8|
[F,^A,D]15/8|[F,^A,D]15/8|F,,15/8|[F,A,C]15/8|
[F,A,C]15/8|F,,15/8|[F,A,C]15/8|[F,A,C]15/8|
D,,15/8|[C,F,A,]15/8|[C,F,A,]15/8|C,,15/8|
[D,G,^A,]15/8|[D,G,^A,]15/8|F,,15/8|[A,F,CC,,]15/8|
[A,F,CA,,]15/8|[F,A,CF,,]15/8


